X: 1
T: Sheryl's Hornpipe
C: Dave Wiesler (March 1998)
N: For Sheryl Griffith
M: 4/4
L: 1/8
K: G
(3DEF | "G"G2FG BGGB | d2^cd gddg | "C"edcB "Am"cBAG |1,3 "D7"F2A2 A2 \
                                                    :|2,4 "D7"FDEF "G"G2 :|
|: fg | "D"a2ga fddf | "G"g2fg bggd | "C"edcB "Am"cBAG |1,3 "D7"F2A2 A2 ||
[1 fg  | "D"a2ga fddf | "G"g2fg bgdB | "C"cBAG "D7"FDEF | "G"G2B2 G2 :|
[2 (3DEF | "G"G2FG BGGB | d2^cd gddB | "C"cBAG "D7"FDEF | "G"G2B2 G2 |]
